faq-accordion-card-main/images/illustration-box-desktop.svg

<svg width="191" height="183" viewBox="0 0 191 183" fill="none" xmlns="http://www.w3.org/2000/svg">
<g filter="url(#filter0_d_545_634)">
<path d="M50.9297 29.8811V83.7511L92.8977 107.786L140.285 79.7611V25.8911" fill="black"/>
</g>
<path d="M50.9297 29.8811V83.7511L92.8977 107.786L140.285 79.7611V25.8911" fill="#FF9271"/>
<path d="M92.8989 53.9171V107.787L140.286 79.7611V25.8911L92.8989 53.9171Z" fill="#DF5C34"/>
<path d="M50.9297 29.88L99.6237 2.12598L140.286 25.893L92.8987 53.918L50.9297 29.88Z" fill="#F47B56"/>
<path d="M94.013 14.4901C98.9501 14.1568 103.88 15.2424 108.22 17.6191C110.706 19.0811 112.064 20.6071 112.256 22.1981C112.448 23.7881 111.628 25.1731 109.694 26.3411C108.777 26.9079 107.766 27.3074 106.709 27.5211C105.84 27.7261 104.949 27.8161 104.057 27.7901L103.083 27.7131C103.174 27.9301 103.234 28.1591 103.263 28.3931C103.232 28.9467 103.055 29.4823 102.75 29.9451C102.243 30.8054 101.519 31.5175 100.65 32.0101C98.6253 33.2131 96.3046 33.8261 93.95 33.7801C91.5135 33.8456 89.1062 33.2376 86.993 32.0231C84.994 30.8431 83.97 29.4571 83.893 27.8671C83.9005 27.0249 84.1447 26.2019 84.5977 25.4919C85.0508 24.7819 85.6943 24.2137 86.455 23.8521C87.1848 23.397 87.9795 23.0554 88.812 22.8391C89.4758 22.6474 90.1591 22.5314 90.849 22.4931H91.554L90.272 21.7231L93.872 19.4791L102.212 24.3911C102.85 24.7345 103.563 24.9142 104.287 24.9142C105.011 24.9142 105.724 24.7345 106.362 24.3911C108.131 23.2881 107.499 21.8391 104.467 20.0431C101.245 18.2688 97.5816 17.4544 93.911 17.6961C90.0205 17.7438 86.2146 18.8381 82.893 20.8641C79.87 22.7541 78.371 25.0071 78.397 27.6241C78.397 30.1881 79.998 32.4721 83.111 34.3061C86.5087 36.2064 90.3674 37.1256 94.257 36.9611C98.1292 37.0243 101.943 36.0118 105.274 34.0361C106.427 33.3529 107.461 32.4865 108.336 31.4711C108.921 30.8497 109.358 30.1046 109.616 29.2911L109.796 28.4831L114.549 28.7521C114.557 28.8971 114.557 29.0421 114.549 29.1881C114.462 29.5807 114.346 29.9664 114.203 30.3421C113.997 30.945 113.721 31.5221 113.383 32.0621C112.895 32.7888 112.328 33.4595 111.693 34.0621C110.855 34.8705 109.931 35.5848 108.938 36.1921C106.078 37.909 102.91 39.0503 99.612 39.5521C96.0182 40.1797 92.3486 40.2445 88.735 39.7441C85.4501 39.3569 82.2752 38.319 79.396 36.6911C77.0711 35.4602 75.2095 33.5066 74.092 31.1251C73.6353 30.0861 73.3994 28.9635 73.3994 27.8286C73.3994 26.6936 73.6353 25.5711 74.092 24.5321C75.1989 22.107 77.0414 20.0921 79.358 18.7731C83.7719 16.0601 88.8327 14.5817 94.013 14.4901ZM98.676 27.7521C98.506 26.8611 97.906 26.1121 97.075 25.7511C96.0658 25.1564 94.9163 24.8419 93.745 24.8401C92.6561 24.7988 91.5787 25.075 90.644 25.6351C90.2673 25.8189 89.9486 26.1029 89.7226 26.4558C89.4967 26.8088 89.3722 27.2171 89.363 27.6361C89.48 28.5261 90.053 29.2901 90.875 29.6501C91.9071 30.2399 93.0805 30.5372 94.269 30.5101C95.4116 30.5386 96.5392 30.2451 97.523 29.6631C97.8877 29.496 98.196 29.2264 98.41 28.887C98.624 28.5476 98.7345 28.1532 98.728 27.7521" fill="#3E2928"/>
<defs>
<filter id="filter0_d_545_634" x="0.929688" y="0.891113" width="189.355" height="181.895" filterUnits="userSpaceOnUse" color-interpolation-filters="sRGB">
<feFlood flood-opacity="0" result="BackgroundImageFix"/>
<feColorMatrix in="SourceAlpha" type="matrix" values="0 0 0 0 0 0 0 0 0 0 0 0 0 0 0 0 0 0 127 0" result="hardAlpha"/>
<feOffset dy="25"/>
<feGaussianBlur stdDeviation="25"/>
<feColorMatrix type="matrix" values="0 0 0 0 0.209139 0 0 0 0 0.0691446 0 0 0 0 0.478091 0 0 0 0.497159 0"/>
<feBlend mode="normal" in2="BackgroundImageFix" result="effect1_dropShadow_545_634"/>
<feBlend mode="normal" in="SourceGraphic" in2="effect1_dropShadow_545_634" result="shape"/>
</filter>
</defs>
</svg>

<svg width="191" height="184" xmlns="http://www.w3.org/2000/svg" xmlns:xlink="http://www.w3.org/1999/xlink"><defs><filter x="-97.9%" y="-76.3%" width="295.8%" height="313.7%" filterUnits="objectBoundingBox" id="a"><feOffset dy="25" in="SourceAlpha" result="shadowOffsetOuter1"/><feGaussianBlur stdDeviation="25" in="shadowOffsetOuter1" result="shadowBlurOuter1"/><feColorMatrix values="0 0 0 0 0.209139076 0 0 0 0 0.0691446444 0 0 0 0 0.478091033 0 0 0 0.497159091 0" in="shadowBlurOuter1"/></filter><path id="b" d="M0 27.756v53.87l41.968 24.035 47.387-28.025v-53.87"/></defs><g fill="none" fill-rule="evenodd"><g transform="translate(50.93 2.125)"><use fill="#000" filter="url(#a)" xlink:href="#b"/><use fill="#FF9271" xlink:href="#b"/></g><path fill="#DF5C34" fill-rule="nonzero" d="M92.899 53.917v53.87l47.387-28.026v-53.87z"/><path fill="#F47B56" fill-rule="nonzero" d="M50.93 29.88L99.624 2.126l40.662 23.767-47.387 28.025z"/><path d="M94.013 14.49a25.942 25.942 0 0114.207 3.129c2.486 1.462 3.844 2.988 4.036 4.579.192 1.59-.628 2.975-2.562 4.143a9.115 9.115 0 01-2.985 1.18c-.869.205-1.76.295-2.652.269l-.974-.077c.091.217.151.446.18.68a3.132 3.132 0 01-.513 1.552 5.704 5.704 0 01-2.1 2.065 12.633 12.633 0 01-6.7 1.77 13.247 13.247 0 01-6.957-1.757c-1.999-1.18-3.023-2.566-3.1-4.156a4.49 4.49 0 012.562-4.015 8.488 8.488 0 012.357-1.013 9.175 9.175 0 012.037-.346h.705l-1.282-.77 3.6-2.244 8.34 4.912a4.377 4.377 0 004.15 0c1.769-1.103 1.137-2.552-1.895-4.348a19.261 19.261 0 00-10.556-2.347 21.67 21.67 0 00-11.018 3.168c-3.023 1.89-4.522 4.143-4.496 6.76 0 2.564 1.601 4.848 4.714 6.682a21.015 21.015 0 0011.146 2.655 20.926 20.926 0 0011.017-2.925 12.353 12.353 0 003.062-2.565 5.683 5.683 0 001.28-2.18l.18-.808 4.753.269c.008.145.008.29 0 .436a8.216 8.216 0 01-.346 1.154 8.303 8.303 0 01-.82 1.72 11.912 11.912 0 01-1.69 2 15.952 15.952 0 01-2.755 2.13 25.602 25.602 0 01-9.326 3.36 35.176 35.176 0 01-10.877.192 24.896 24.896 0 01-9.339-3.053 12.127 12.127 0 01-5.304-5.566 8.192 8.192 0 010-6.593 12.692 12.692 0 015.266-5.759 28.966 28.966 0 0114.655-4.284zm4.663 13.262c-.17-.891-.77-1.64-1.601-2.001a6.579 6.579 0 00-3.33-.911 5.619 5.619 0 00-3.101.795 2.283 2.283 0 00-1.281 2.001c.117.89.69 1.654 1.512 2.014a6.54 6.54 0 003.394.86 6.092 6.092 0 003.254-.847 2.065 2.065 0 001.205-1.911" fill="#3E2928" fill-rule="nonzero"/></g></svg>
